public/bgs/os_1/bg-12.svg

<?xml version="1.0" encoding="UTF-8" standalone="no"?>
<!-- Created with Inkscape (http://www.inkscape.org/) -->

<svg
   width="1400"
   height="900"
   viewBox="0 0 370.41666 238.12501"
   version="1.1"
   id="svg5"
   inkscape:version="1.1 (c68e22c387, 2021-05-23)"
   sodipodi:docname="bg-12.svg"
   xmlns:inkscape="http://www.inkscape.org/namespaces/inkscape"
   xmlns:sodipodi="http://sodipodi.sourceforge.net/DTD/sodipodi-0.dtd"
   xmlns:xlink="http://www.w3.org/1999/xlink"
   xmlns="http://www.w3.org/2000/svg"
   xmlns:svg="http://www.w3.org/2000/svg">
  <sodipodi:namedview
     id="namedview7"
     pagecolor="#505050"
     bordercolor="#ffffff"
     borderopacity="1"
     inkscape:pageshadow="0"
     inkscape:pageopacity="0"
     inkscape:pagecheckerboard="1"
     inkscape:document-units="mm"
     showgrid="false"
     units="px"
     inkscape:zoom="0.3884119"
     inkscape:cx="580.56924"
     inkscape:cy="186.65752"
     inkscape:window-width="1366"
     inkscape:window-height="705"
     inkscape:window-x="-8"
     inkscape:window-y="-8"
     inkscape:window-maximized="1"
     inkscape:current-layer="layer1" />
  <defs
     id="defs2">
    <linearGradient
       id="linearGradient16362"
       inkscape:swatch="solid">
      <stop
         style="stop-color:#1bc32f;stop-opacity:0.38823527;"
         offset="0"
         id="stop16360" />
    </linearGradient>
    <linearGradient
       inkscape:collect="always"
       id="linearGradient14088">
      <stop
         style="stop-color:#b4991f;stop-opacity:0.83534139"
         offset="0"
         id="stop14084" />
      <stop
         style="stop-color:#fcaf11;stop-opacity:0"
         offset="1"
         id="stop14086" />
    </linearGradient>
    <linearGradient
       inkscape:collect="always"
       id="linearGradient10337">
      <stop
         style="stop-color:#16ffc9;stop-opacity:0.85542166"
         offset="0"
         id="stop10333" />
      <stop
         style="stop-color:#037bd2;stop-opacity:0"
         offset="1"
         id="stop10335" />
    </linearGradient>
    <linearGradient
       inkscape:collect="always"
       id="linearGradient10329">
      <stop
         style="stop-color:#ef8ac7;stop-opacity:0.89558238"
         offset="0"
         id="stop10325" />
      <stop
         style="stop-color:#f705f9;stop-opacity:0"
         offset="1"
         id="stop10327" />
    </linearGradient>
    <linearGradient
       inkscape:collect="always"
       id="linearGradient10321">
      <stop
         style="stop-color:#04ddcb;stop-opacity:1"
         offset="0"
         id="stop10317" />
      <stop
         style="stop-color:#44e950;stop-opacity:0"
         offset="1"
         id="stop10319" />
    </linearGradient>
    <linearGradient
       inkscape:collect="always"
       id="linearGradient4760">
      <stop
         style="stop-color:#000000;stop-opacity:1;"
         offset="0"
         id="stop4756" />
      <stop
         style="stop-color:#000000;stop-opacity:0;"
         offset="1"
         id="stop4758" />
    </linearGradient>
    <marker
       style="overflow:visible"
       id="Arrow1Lstart"
       refX="0.0"
       refY="0.0"
       orient="auto"
       inkscape:stockid="Arrow1Lstart"
       inkscape:isstock="true">
      <path
         transform="scale(0.8) translate(12.5,0)"
         style="fill-rule:evenodd;fill:context-stroke;stroke:context-stroke;stroke-width:1.0pt"
         d="M 0.0,0.0 L 5.0,-5.0 L -12.5,0.0 L 5.0,5.0 L 0.0,0.0 z "
         id="path3550" />
    </marker>
    <linearGradient
       id="linearGradient3483"
       inkscape:swatch="solid">
      <stop
         style="stop-color:#d3d3d3;stop-opacity:1;"
         offset="0"
         id="stop3481" />
    </linearGradient>
    <radialGradient
       inkscape:collect="always"
       xlink:href="#linearGradient4760"
       id="radialGradient4778"
       cx="183.58141"
       cy="118.18693"
       fx="183.58141"
       fy="118.18693"
       r="188.34976"
       gradientTransform="matrix(0.02247318,1.7987302,-1.1643137,0.01454681,317.0624,-213.74572)"
       gradientUnits="userSpaceOnUse" />
    <radialGradient
       inkscape:collect="always"
       xlink:href="#linearGradient10321"
       id="radialGradient10323"
       cx="557.99974"
       cy="360.97327"
       fx="557.99974"
       fy="360.97327"
       r="256.95547"
       gradientTransform="matrix(1,0,0,0.98743502,0,4.5356216)"
       gradientUnits="userSpaceOnUse" />
    <radialGradient
       inkscape:collect="always"
       xlink:href="#linearGradient10329"
       id="radialGradient10331"
       cx="557.99974"
       cy="360.97327"
       fx="557.99974"
       fy="360.97327"
       r="256.95547"
       gradientTransform="matrix(1,0,0,0.98743502,0,4.5356216)"
       gradientUnits="userSpaceOnUse" />
    <radialGradient
       inkscape:collect="always"
       xlink:href="#linearGradient10337"
       id="radialGradient12418"
       cx="557.99976"
       cy="360.97327"
       fx="557.99976"
       fy="360.97327"
       r="256.95547"
       gradientTransform="matrix(1,0,0,0.98743502,0,4.5356216)"
       gradientUnits="userSpaceOnUse" />
    <radialGradient
       inkscape:collect="always"
       xlink:href="#linearGradient14088"
       id="radialGradient12418-8"
       cx="557.99976"
       cy="360.97327"
       fx="557.99976"
       fy="360.97327"
       r="256.95547"
       gradientTransform="matrix(1,0,0,0.98743502,0,4.5356216)"
       gradientUnits="userSpaceOnUse" />
    <radialGradient
       inkscape:collect="always"
       xlink:href="#linearGradient10329"
       id="radialGradient14598"
       cx="552.67999"
       cy="360.87341"
       fx="552.67999"
       fy="360.87341"
       r="431.31717"
       gradientTransform="matrix(1,0,0,0.99851922,0,0.53437546)"
       gradientUnits="userSpaceOnUse" />
    <radialGradient
       inkscape:collect="always"
       xlink:href="#linearGradient10337"
       id="radialGradient14652"
       cx="548.60156"
       cy="364.9548"
       fx="548.60156"
       fy="364.9548"
       r="429.19839"
       gradientTransform="matrix(1,0,0,1.0079451,0,-2.8996024)"
       gradientUnits="userSpaceOnUse" />
    <radialGradient
       inkscape:collect="always"
       xlink:href="#linearGradient14088"
       id="radialGradient15909"
       cx="548.59509"
       cy="364.96225"
       fx="548.59509"
       fy="364.96225"
       r="429.1633"
       gradientTransform="matrix(1,0,0,1.0079618,0,-2.905761)"
       gradientUnits="userSpaceOnUse" />
    <linearGradient
       inkscape:collect="always"
       xlink:href="#linearGradient16362"
       id="linearGradient16364"
       x1="133.73577"
       y1="362.21131"
       x2="982.84404"
       y2="362.21131"
       gradientUnits="userSpaceOnUse" />
  </defs>
  <g
     inkscape:label="Warstwa 1"
     inkscape:groupmode="layer"
     id="layer1"
     style="display:inline">
    <rect
       style="fill:url(#radialGradient4778);fill-opacity:1;stroke:#e1ee27;stroke-width:0.264999;stroke-dasharray:0, 2.91499;stroke-dashoffset:2.64999;stroke-opacity:0.771084"
       id="rect1116"
       width="376.69952"
       height="243.18579"
       x="-4.7683487"
       y="-3.4059632"
       ry="7.8111267" />
    <path
       sodipodi:type="star"
       style="display:inline;mix-blend-mode:lighten;fill:url(#radialGradient12418-8);fill-opacity:1;fill-rule:evenodd;stroke:url(#radialGradient15909);stroke-width:1.0661"
       id="path8325-8-5"
       inkscape:flatsided="false"
       sodipodi:sides="9"
       sodipodi:cx="558.68524"
       sodipodi:cy="368.16586"
       sodipodi:r1="260.94928"
       sodipodi:r2="439.32632"
       sodipodi:arg1="2.6028652"
       sodipodi:arg2="2.4844574"
       inkscape:rounded="0"
       inkscape:randomized="0"
       transform="matrix(0.19158861,-0.18085752,0.17434629,0.15690433,-60.82267,126.48978)"
       inkscape:transform-center-x="-5.4346102"
       inkscape:transform-center-y="-1.125556"
       d="M 334.69623,502.04435 210.85064,636.52888 301.04427,326.74537 119.72806,350.16009 387.94538,170.8275 233.99842,72.2164 554.73757,107.24645 500.19335,-67.249247 723.37692,165.75248 793.75729,-2.9793247 814.9552,318.96999 977.32841,234.95356 786.62192,495.20679 965.01173,535.21796 651.63453,611.99973 762.57038,757.31682 473.15514,614.7001 464.7289,797.32763 Z" />
    <path
       sodipodi:type="star"
       style="mix-blend-mode:screen;fill:url(#radialGradient10331);fill-opacity:1;fill-rule:evenodd;stroke:url(#radialGradient14598);stroke-width:1.23544"
       id="path8325"
       inkscape:flatsided="false"
       sodipodi:sides="9"
       sodipodi:cx="558.68524"
       sodipodi:cy="368.16586"
       sodipodi:r1="260.94928"
       sodipodi:r2="439.33417"
       sodipodi:arg1="2.6028652"
       sodipodi:arg2="1.8410645"
       inkscape:rounded="0"
       inkscape:randomized="0"
       d="M 334.69623,502.04435 441.38746,791.55191 301.04427,326.74537 196.68263,617.10083 387.94538,170.8275 121.36284,326.17032 554.73757,107.24645 250.67106,54.889985 723.37692,165.75248 524.10254,-69.805081 814.9552,318.96999 813.71565,10.431325 786.62192,495.20679 983.9972,258.0557 651.63453,611.99973 955.27055,557.20184 473.15514,614.7001 740.97723,767.89595 Z"
       transform="matrix(0.10517755,0.19078333,-0.19580028,0.08090801,199.80238,-85.571008)"
       inkscape:transform-center-x="-0.47964699"
       inkscape:transform-center-y="8.3448173" />
    <path
       sodipodi:type="star"
       style="display:inline;fill:url(#radialGradient12418);fill-opacity:1;fill-rule:evenodd;stroke-width:1.16911;stroke:url(#radialGradient14652)"
       id="path8325-8"
       inkscape:flatsided="false"
       sodipodi:sides="9"
       sodipodi:cx="558.68524"
       sodipodi:cy="368.16586"
       sodipodi:r1="260.94928"
       sodipodi:r2="439.32632"
       sodipodi:arg1="2.6028652"
       sodipodi:arg2="2.4844574"
       inkscape:rounded="0"
       inkscape:randomized="0"
       transform="matrix(0.17651086,-0.16323719,0.16062549,0.14161768,102.23213,127.80952)"
       inkscape:transform-center-x="-5.0069139"
       inkscape:transform-center-y="-1.0158929"
       d="M 334.69623,502.04435 210.85064,636.52888 301.04427,326.74537 119.72806,350.16009 387.94538,170.8275 233.99842,72.2164 554.73757,107.24645 500.19335,-67.249247 723.37692,165.75248 793.75729,-2.9793247 814.9552,318.96999 977.32841,234.95356 786.62192,495.20679 965.01173,535.21796 651.63453,611.99973 762.57038,757.31682 473.15514,614.7001 464.7289,797.32763 Z" />
    <path
       sodipodi:type="star"
       style="display:inline;mix-blend-mode:normal;fill:url(#radialGradient10323);fill-opacity:1;fill-rule:evenodd;stroke:url(#linearGradient16364);stroke-width:1.24654"
       id="path8325-9"
       inkscape:flatsided="false"
       sodipodi:sides="9"
       sodipodi:cx="558.68524"
       sodipodi:cy="368.16586"
       sodipodi:r1="418.61847"
       sodipodi:r2="430.50714"
       sodipodi:arg1="-1.2071561"
       sodipodi:arg2="-1.5764482"
       inkscape:rounded="0"
       inkscape:randomized="0"
       transform="matrix(0.17051199,-0.14863963,0.1551665,0.12895345,33.025232,154.53869)"
       inkscape:transform-center-x="-4.8367462"
       inkscape:transform-center-y="-0.92504871"
       d="M 707.57894,-23.078419 556.25208,-62.334402 924.23141,164.16238 833.54157,36.819523 969.84076,446.85868 982.22273,291.01408 823.06588,692.73373 932.72599,581.30882 552.58435,786.73987 708.21143,771.8716 284.9575,684.89058 413.7319,773.53597 145.4109,434.84228 187.07766,585.52317 199.23996,153.59533 134.30273,295.80647 421.25746,-27.251672 280.1011,39.947532 Z" />
  </g>
  <g
     inkscape:groupmode="layer"
     id="layer2"
     inkscape:label="Light"
     style="display:inline" />
</svg>

<svg xmlns="http://www.w3.org/2000/svg" xmlns:xlink="http://www.w3.org/1999/xlink" width="1400" height="900" viewBox="0 0 370.4167 238.125"><defs><radialGradient xlink:href="#a" id="g" cx="183.5814" cy="118.1869" r="188.3498" fx="183.5814" fy="118.1869" gradientTransform="matrix(.0225 1.7987 -1.1643 .0145 317.0624 -213.7457)" gradientUnits="userSpaceOnUse"/><radialGradient xlink:href="#b" id="n" cx="557.9997" cy="360.9733" r="256.9555" fx="557.9997" fy="360.9733" gradientTransform="matrix(1 0 0 .9874 0 4.5356)" gradientUnits="userSpaceOnUse"/><radialGradient xlink:href="#c" id="j" cx="557.9997" cy="360.9733" r="256.9555" fx="557.9997" fy="360.9733" gradientTransform="matrix(1 0 0 .9874 0 4.5356)" gradientUnits="userSpaceOnUse"/><radialGradient xlink:href="#d" id="l" cx="557.9998" cy="360.9733" r="256.9555" fx="557.9998" fy="360.9733" gradientTransform="matrix(1 0 0 .9874 0 4.5356)" gradientUnits="userSpaceOnUse"/><radialGradient xlink:href="#e" id="h" cx="557.9998" cy="360.9733" r="256.9555" fx="557.9998" fy="360.9733" gradientTransform="matrix(1 0 0 .9874 0 4.5356)" gradientUnits="userSpaceOnUse"/><radialGradient xlink:href="#c" id="k" cx="552.68" cy="360.8734" r="431.3172" fx="552.68" fy="360.8734" gradientTransform="matrix(1 0 0 .9985 0 .5344)" gradientUnits="userSpaceOnUse"/><radialGradient xlink:href="#d" id="m" cx="548.6016" cy="364.9548" r="429.1984" fx="548.6016" fy="364.9548" gradientTransform="matrix(1 0 0 1.008 0 -2.8996)" gradientUnits="userSpaceOnUse"/><radialGradient xlink:href="#e" id="i" cx="548.5951" cy="364.9622" r="429.1633" fx="548.5951" fy="364.9622" gradientTransform="matrix(1 0 0 1.008 0 -2.9058)" gradientUnits="userSpaceOnUse"/><linearGradient id="f"><stop offset="0" stop-color="#1bc32f" stop-opacity=".3882"/></linearGradient><linearGradient id="e"><stop offset="0" stop-color="#b4991f" stop-opacity=".8353"/><stop offset="1" stop-color="#fcaf11" stop-opacity="0"/></linearGradient><linearGradient id="d"><stop offset="0" stop-color="#16ffc9" stop-opacity=".8554"/><stop offset="1" stop-color="#037bd2" stop-opacity="0"/></linearGradient><linearGradient id="c"><stop offset="0" stop-color="#ef8ac7" stop-opacity=".8956"/><stop offset="1" stop-color="#f705f9" stop-opacity="0"/></linearGradient><linearGradient id="b"><stop offset="0" stop-color="#04ddcb"/><stop offset="1" stop-color="#44e950" stop-opacity="0"/></linearGradient><linearGradient id="a"><stop offset="0"/><stop offset="1" stop-opacity="0"/></linearGradient><linearGradient xlink:href="#f" id="o" x1="133.7358" x2="982.844" y1="362.2113" y2="362.2113" gradientUnits="userSpaceOnUse"/></defs><rect width="376.6995" height="243.1858" x="-4.7683" y="-3.406" fill="url(#g)" stroke="#e1ee27" stroke-dasharray="0,2.91499" stroke-dashoffset="2.65" stroke-opacity=".7711" stroke-width=".265" ry="7.8111"/><path fill="url(#h)" fill-rule="evenodd" stroke="url(#i)" stroke-width="1.0661" d="M334.6962 502.0444 210.8506 636.5289l90.1937-309.7835L119.728 350.16l268.2173-179.3326-153.947-98.6111 320.7392 35.03-54.5443-174.4956L723.377 165.7525 793.7573-2.9793 814.9552 318.97l162.3732-84.0164L786.622 495.2068l178.3898 40.0112-313.3772 76.7817 110.9359 145.3171L473.155 614.7001l-8.4262 182.6275Z" style="mix-blend-mode:lighten" transform="matrix(.1916 -.1809 .1743 .1569 -60.8227 126.4898)"/><path fill="url(#j)" fill-rule="evenodd" stroke="url(#k)" stroke-width="1.2354" d="m334.6962 502.0444 106.6913 289.5075-140.3432-464.8065-104.3617 290.3554 191.2628-446.2733-266.5826 155.3428 433.3748-218.9239L250.671 54.89l472.7058 110.8625L524.1025-69.8051 814.9552 318.97l-1.2396-308.5386-27.0937 484.7755 197.3753-237.1511-332.3627 353.944 303.636-54.7979-482.1154 57.4983 267.8221 153.1958Z" style="mix-blend-mode:screen" transform="matrix(.1052 .1908 -.1958 .081 199.8024 -85.571)"/><path fill="url(#l)" fill-rule="evenodd" stroke="url(#m)" stroke-width="1.1691" d="M334.6962 502.0444 210.8506 636.5289l90.1937-309.7835L119.728 350.16l268.2173-179.3326-153.947-98.6111 320.7392 35.03-54.5443-174.4956L723.377 165.7525 793.7573-2.9793 814.9552 318.97l162.3732-84.0164L786.622 495.2068l178.3898 40.0112-313.3772 76.7817 110.9359 145.3171L473.155 614.7001l-8.4262 182.6275Z" transform="matrix(.1765 -.1632 .1606 .1416 102.2321 127.8095)"/><path fill="url(#n)" fill-rule="evenodd" stroke="url(#o)" stroke-width="1.2465" d="m707.579-23.0784-151.327-39.256 367.9794 226.4968-90.6898-127.3429 136.2992 410.0392 12.382-155.8446-159.157 401.7196L932.726 581.3088l-380.1417 205.431 155.6271-14.8682-423.2539-86.981 128.7744 88.6454-268.321-338.6937 41.6668 150.6809L199.24 153.5953l-64.9373 142.2112L421.2575-27.2517 280.101 39.9475Z" style="mix-blend-mode:normal" transform="matrix(.1705 -.1486 .1552 .129 33.0252 154.5387)"/></svg>
